Yaru++/actions/16/node-type-cusp.svg

<svg viewBox="0 0 24 24" xmlns="http://www.w3.org/2000/svg">
  <path d="m2.0019531 4-.0019531.0019531v.9960938l.0019531.0019531h.9960938l.0019531-.0019531v.0058593c4.31303.7501101 7.624504 6.1628928 7.964844 12.7890628l.929687-.929688c-.62303-6.76339-4.249621-12.163031-8.894531-12.863281h-.0019531zm8.9980469 0v3h1v1h1v-1h1v-3zm10 0c-.005 7.06463-3.393592 12.999241-7.888672 13.869141l.302734.302734-.414062.414063v.339843c5.11011-.77038 9.00033-7.222001 9-14.925781zm-9 1h1v1h-1zm0 4v1h1v-1zm0 2v1h1v-1zm7 6v1h-1v1h1v1h3v-3zm-3 1v1h1v-1zm4 0h1v1h-1zm-9.009766.576172c.002.11193.009766.221474.009766.333984h.324219z" fill="#808080"/>
  <path d="m12 15.34375-2.828125 2.828125 2.828125 2.828125 2.828125-2.828125zm0 1.414062 1.414062 1.414063-1.414062 1.414063-1.414062-1.414063z" fill="#1d99f3"/>
</svg>

<svg xmlns="http://www.w3.org/2000/svg" viewBox="0 0 24 24">
 <defs>
  <style id="current-color-scheme" type="text/css">
   .ColorScheme-Text { color:#808080; } .ColorScheme-Highlight { color:#1d99f3; }
  </style>
 </defs>
 <path style="fill:currentColor" class="ColorScheme-Text" d="M 2.0019531 4 L 2 4.0019531 L 2 4.9980469 L 2.0019531 5 L 2.9980469 5 L 3 4.9980469 L 3 5.0039062 C 7.31303 5.7540163 10.624504 11.166799 10.964844 17.792969 L 11.894531 16.863281 C 11.271501 10.099891 7.64491 4.70025 3 4 L 2.9980469 4 L 2.0019531 4 z M 11 4 L 11 7 L 12 7 L 12 8 L 13 8 L 13 7 L 14 7 L 14 4 L 11 4 z M 21 4 C 20.995 11.06463 17.606408 16.999241 13.111328 17.869141 L 13.414062 18.171875 L 13 18.585938 L 13 18.925781 C 18.11011 18.155401 22.00033 11.70378 22 4 L 21 4 z M 12 5 L 13 5 L 13 6 L 12 6 L 12 5 z M 12 9 L 12 10 L 13 10 L 13 9 L 12 9 z M 12 11 L 12 12 L 13 12 L 13 11 L 12 11 z M 19 17 L 19 18 L 18 18 L 18 19 L 19 19 L 19 20 L 22 20 L 22 17 L 19 17 z M 16 18 L 16 19 L 17 19 L 17 18 L 16 18 z M 20 18 L 21 18 L 21 19 L 20 19 L 20 18 z M 10.990234 18.576172 C 10.992234 18.688102 11 18.797646 11 18.910156 L 11.324219 18.910156 L 10.990234 18.576172 z"/>
 <path style="fill:currentColor" class="ColorScheme-Highlight" d="M 12 15.34375 L 9.171875 18.171875 L 12 21 L 14.828125 18.171875 L 12 15.34375 z M 12 16.757812 L 13.414062 18.171875 L 12 19.585938 L 10.585938 18.171875 L 12 16.757812 z"/>
</svg>
